X:1
T:The Drummer and the Cook (2)
M:2/4
L:1/8
K:Bb
 F| FB BB| BB Bd| cB cd| B2 d2| dd dd| dd dd| dc cc| c3| d| FF DD|\
 FF DD| GG GF| GB Bc| dc BA| B2 BA| GG GA| GF| DF| B2 DE| F2- F2| G2 GA|\
 GF FF| B2 DE| F3 d| dc BA| B3||
